X: 9
T:Frost is all over
R:Jig
C:Trad.
M:6/8
L:1/8
Q:3/8=120
K:D
|:AFD DEF|ABd B2A|ABA F2F|GFG E3|
AFD DEF|ABd B2A|ABA F2E|EDD D3:|
|fdd ede|fdd d2e|~f3 def|~g3 efg|
fed B2d|A2d F3|ABA F2E|EDD D2A:|
